X:1
T:Questa mia donna
T:Questa mia donna
T:Giovanni Maria Artusi
T:Source : Canzonette a 4 voci---Libro primo---Venetia---C.Vincenti---1598. Editor : André Vierendeels (22/02/14).
T:Notes: Original clefs C1, C1, C3, F4 m6 in C1, F-sharp noted as semi-brevis in original print
C:Giovanni Maria Artusi
%%score [ 1 2 3 4 ]
L:1/8
Q:1/4=80
M:4/4
K:F
V:1 treble nm="Canto 1" snm="C 1"
V:2 treble nm="Canto 2" snm="C 2"
V:3 treble-8 nm="Tenor" snm="T"
V:4 bass nm="Basso" snm="B"
V:1
 B4 B2 B2 | B6 B2 | c4 d4 | z4 z2 B2 | A2 B2 F2 G2 | FF G3 G ^F2 | G8 | z2 G2 G2 G2 | G4 G2 B2- | %9
w: Que- sta mia|don- n'al-|te- ra,|ch'a-|mor mi mo- str'in|so- gn'a cio non pe-|ra,|que- sta mia|don- n'al- te-|
 B2 A2 B2 F2 | F6 F2 | F2 D2 D2 C2 | D2 D2 D4 | D2 _E2 E2 E2 | z2 F4 F2 | E4 F2 F2- | FF F2 F2 D2 | %17
w: * * ra, ch'a-|mor mi|mo- str'in so- gn'a|cio non pe-|ra, spa- ris- ce|si ch'in|va- no, per|_ toc- car l'il bel|
 F2 FG AGFE | D4 E2 c2- | cB B2 A4 | =B2 _BA Bc d2 | A4 B4 | FE FG A2 B2 | A8 | B2 G2 G2 G2 | %25
w: crin gi- * * * * *|* ro, gi|_ ro la ma-|no, gi- * * * *|ro, gi-|* ro _ _ _ la|ma-|no, spa- ris- ce|
 z2 A4 A2 | A4 A2 B2- | BB B2 A2 G2 | A4 FGAG | FEFG A2 G2 | ^F2 G4 F2 | G8 | z4 GF GA | %33
w: si ch'in|va- no, per|_ toc- car l'il bel|crin gi- * * *|* * * * * ro|la ma- *|no,|gi- * * *|
 B2 A4 G2- | G2 FE ^F4 | G8 |] %36
w: ro la ma-||no.|
V:2
 G4 G2 G2 | G4 G2 B2- | B2 A2 B2 F2 | F6 F2 | F2 D2 D2 C2 | D2 D2 D4 | D8 | z2 B2 B2 B2 | B6 B2 | %9
w: Que- sta mia|don- n'al- te-|* * ra, ch'a-|mor mi|mo- str'in so- gn'a|cio non pe-|ra,|que- sta mia|don- n'al-|
 c4 d4 | z4 z2 B2 | A2 B2 F2 G2 | FF G3 ^F F2 | G2 G2 G2 G2 | z2 A4 A2 | A4 A2 B2- | BB B2 A2 G2 | %17
w: te- ra,|ch'a-|mor mi mo- str'in|so- gn'a cio no, pe-|ra, spa- ris- ce|si ch'in|va- no, per|_ toc- car l'il bel|
 A4 FGAG | FE FG A2 G2 | ^F2 G4 F2 | G8 | z4 GF GA | B2 A4 G2- | G2 FE ^F4 | G2 _E2 E2 E2 | %25
w: crin gi- * * *|* * * * ro la|ma- * *|no,|gi- * * *|* ro la|_ _ _ ma-|no, spa- ris- ce|
 z2 F4 F2 | E4 F2 F2- | FF F2 F2 D2 | F2 FG AG FE | D4 E2 c2- | cB B2 A4 | =B2 _BA Bc d2 | A4 B4 | %33
w: si ch'in|va- no, per|_ toc- car l'il bel|crin gi- * * * * *|* ro, gi-|* ro la ma-|no, gi- * * * *|ro, gi-|
 FE FG A2 B2 | A8 | =B8 |] %36
w: ro _ _ _ _ la|ma-|no.|
V:3
 z2 d4 d2 | d2 d4 d2 | f4 f4 | d4 c2 d2 | c2 B2 A2 G2 | A2 B2 A4 | =B8 | z2 d4 d2 | d2 d4 d2 | %9
w: Que- sta|mia don- n'al-|te- ra,|ch'a mor mi|mo- str'in so- gn'a|cio non pe-|ra,|que- sta|mia don- n'al-|
 f4 f4 | d4 c2 d2 | c2 B2 A2 G2 | A2 B2 A4 | =B2 c2 _B2 B2 | z2 d4 d2 | ^c4 d2 d2- | dd d2 c2 B2 | %17
w: te- ra,|ch'a- mor mi|mo- str'in so- gn'a|cio non pe-|ra, spa- ris- ce|si ch'in|va- no per|_ toc- car l'il bel|
 A4 A4 | B4 c4 | d8 | d4 dc de | f2 c2 _e2 B2 | dc de f2 dd | d8 | d2 c2 B2 B2 | z2 d4 d2 | %26
w: crin gi-|ro ma|ma-|no, gi- * * *|* ro, gi- ro,|gi- * * * * * la|ma-|no, spa- ris- ce|si ch'in|
 ^c4 d2 d2- | dd d2 c2 B2 | A4 A4 | B4 c4 | d8 | d4 dc de | f2 c2 _e2 B2 | dc de f2 dd | d8 | d8 |] %36
w: va- no, per|_ toc- car l'il bel|crin gi-|ro la|ma-|no, gi- * * *|* ro, gi- ro,|gi- * * * * ro la|ma-|no.|
V:4
 G,,4 G,,2 G,,2 | G,6 G,2 | F,4 B,,4 | z2 B,2 A,2 B,2 | F,2 G,2 D,2 _E,2 | D,2 G,,2 D,4 | G,,8 | %7
w: Que- sta mia|don- n'al-|te- ra,|ch'a- mor mi|mo- str'in so- gn'a|cio non pe-|ra,|
 z2 G,,2 G,,2 G,,2 | G,6 G,2 | F,4 B,,4 | z2 B,2 A,2 B,2 | F,2 G,2 D,2 _E,2 | D,2 G,,2 D,4 | %13
w: que- sta mia|don- n'al-|te- ra,|ch'a- mor mi|mo- str'in so- gn'a|cio non pe-|
 G,,2 _E,2 E,2 E,2 | z2 D,4 D,2 | A,,4 D,2 B,,2- | B,,B,, B,,2 F,2 G,2 | D,8 | z8 | z8 | G,8 | %21
w: ra, spa- ris- ce|si ch'in|va- no per|_ toc- car l'il bel|crin|||gi-|
 F,4 _E,4 | D,8- | D,8 | G,,2 _E,2 E,2 E,2 | z2 D,4 D,2 | A,,4 D,2 B,,2- | B,,B,, B,,2 F,2 G,2 | %28
w: ro la|ma-||no, spa- ris- ce|si ch'in|va- no, per|_ toc- car l'il bel|
 D,8 | z8 | z8 | G,8 | F,4 _E,4 | D,8- | D,8 | G,,8 |] %36
w: crin|||gi-|ro la|ma-||no.|

